flaticon/business/pie-chart-1.svg

<svg xmlns="http://www.w3.org/2000/svg" width="32" height="32" viewBox="0 0 24 24">
    <path d="M23.941406 11.171875C23.535156 5.234375 18.75.449219 12.8125.0429688L12.386719.015625 12.386719 11.597656 23.96875 11.597656zM13.183594 10.800781L13.183594.878906C14.171875.984375 15.125 1.222656 16.019531 1.570312 16.019531 1.585938 16.011719 1.597656 16.011719 1.609375 16.011719 1.832031 16.191406 2.011719 16.410156 2.011719 16.53125 2.011719 16.636719 1.953125 16.710938 1.871094 18.683594 2.796875 20.339844 4.28125 21.484375 6.121094 21.414062 6.050781 21.316406 6.003906 21.207031 6.003906 20.984375 6.003906 20.804688 6.183594 20.804688 6.40625 20.804688 6.625 20.984375 6.804688 21.207031 6.804688 21.425781 6.804688 21.605469 6.625 21.605469 6.40625 21.605469 6.355469 21.59375 6.304688 21.578125 6.261719 21.78125 6.601562 21.964844 6.953125 22.132812 7.316406 22.054688 7.386719 22.003906 7.488281 22.003906 7.605469 22.003906 7.824219 22.183594 8.003906 22.40625 8.003906 22.414062 8.003906 22.421875 8 22.429688 8 22.769531 8.886719 23.003906 9.824219 23.105469 10.800781zM12.511719 12.398438L20.542969 20.429688 20.824219 20.121094C22.667969 18.121094 23.785156 15.53125 23.972656 12.824219L24 12.398438zM20.511719 19.269531L14.441406 13.199219 23.136719 13.199219C22.898438 15.429688 21.976562 17.554688 20.511719 19.269531zM20.511719 19.269531"/>
    <path d="M14.414062 1.609375C14.414062 1.832031 14.234375 2.011719 14.015625 2.011719 13.792969 2.011719 13.613281 1.832031 13.613281 1.609375 13.613281 1.390625 13.792969 1.210938 14.015625 1.210938 14.234375 1.210938 14.414062 1.390625 14.414062 1.609375zM14.414062 4.007812C14.414062 4.230469 14.234375 4.40625 14.015625 4.40625 13.792969 4.40625 13.613281 4.230469 13.613281 4.007812 13.613281 3.789062 13.792969 3.609375 14.015625 3.609375 14.234375 3.609375 14.414062 3.789062 14.414062 4.007812zM15.613281 2.808594C15.613281 3.03125 15.433594 3.210938 15.210938 3.210938 14.992188 3.210938 14.8125 3.03125 14.8125 2.808594 14.8125 2.589844 14.992188 2.410156 15.210938 2.410156 15.433594 2.410156 15.613281 2.589844 15.613281 2.808594zM18.007812 2.808594C18.007812 3.03125 17.832031 3.210938 17.609375 3.210938 17.390625 3.210938 17.210938 3.03125 17.210938 2.808594 17.210938 2.589844 17.390625 2.410156 17.609375 2.410156 17.832031 2.410156 18.007812 2.589844 18.007812 2.808594zM16.8125 4.007812C16.8125 4.230469 16.632812 4.40625 16.410156 4.40625 16.191406 4.40625 16.011719 4.230469 16.011719 4.007812 16.011719 3.789062 16.191406 3.609375 16.410156 3.609375 16.632812 3.609375 16.8125 3.789062 16.8125 4.007812zM19.207031 4.007812C19.207031 4.230469 19.027344 4.40625 18.808594 4.40625 18.585938 4.40625 18.410156 4.230469 18.410156 4.007812 18.410156 3.789062 18.585938 3.609375 18.808594 3.609375 19.027344 3.609375 19.207031 3.789062 19.207031 4.007812zM20.40625 5.207031C20.40625 5.425781 20.226562 5.605469 20.007812 5.605469 19.785156 5.605469 19.609375 5.425781 19.609375 5.207031 19.609375 4.984375 19.785156 4.808594 20.007812 4.808594 20.226562 4.808594 20.40625 4.984375 20.40625 5.207031zM15.613281 5.207031C15.613281 5.425781 15.433594 5.605469 15.210938 5.605469 14.992188 5.605469 14.8125 5.425781 14.8125 5.207031 14.8125 4.984375 14.992188 4.808594 15.210938 4.808594 15.433594 4.808594 15.613281 4.984375 15.613281 5.207031zM18.007812 5.207031C18.007812 5.425781 17.832031 5.605469 17.609375 5.605469 17.390625 5.605469 17.210938 5.425781 17.210938 5.207031 17.210938 4.984375 17.390625 4.808594 17.609375 4.808594 17.832031 4.808594 18.007812 4.984375 18.007812 5.207031zM20.40625 7.605469C20.40625 7.824219 20.226562 8.003906 20.007812 8.003906 19.785156 8.003906 19.609375 7.824219 19.609375 7.605469 19.609375 7.382812 19.785156 7.203125 20.007812 7.203125 20.226562 7.203125 20.40625 7.382812 20.40625 7.605469zM21.605469 8.800781C21.605469 9.023438 21.425781 9.203125 21.207031 9.203125 20.984375 9.203125 20.804688 9.023438 20.804688 8.800781 20.804688 8.582031 20.984375 8.402344 21.207031 8.402344 21.425781 8.402344 21.605469 8.582031 21.605469 8.800781zM14.414062 6.40625C14.414062 6.625 14.234375 6.804688 14.015625 6.804688 13.792969 6.804688 13.613281 6.625 13.613281 6.40625 13.613281 6.183594 13.792969 6.003906 14.015625 6.003906 14.234375 6.003906 14.414062 6.183594 14.414062 6.40625zM14.414062 8.800781C14.414062 9.023438 14.234375 9.203125 14.015625 9.203125 13.792969 9.203125 13.613281 9.023438 13.613281 8.800781 13.613281 8.582031 13.792969 8.402344 14.015625 8.402344 14.234375 8.402344 14.414062 8.582031 14.414062 8.800781zM15.613281 7.605469C15.613281 7.824219 15.433594 8.003906 15.210938 8.003906 14.992188 8.003906 14.8125 7.824219 14.8125 7.605469 14.8125 7.382812 14.992188 7.203125 15.210938 7.203125 15.433594 7.203125 15.613281 7.382812 15.613281 7.605469zM18.007812 7.605469C18.007812 7.824219 17.832031 8.003906 17.609375 8.003906 17.390625 8.003906 17.210938 7.824219 17.210938 7.605469 17.210938 7.382812 17.390625 7.203125 17.609375 7.203125 17.832031 7.203125 18.007812 7.382812 18.007812 7.605469zM16.8125 6.40625C16.8125 6.625 16.632812 6.804688 16.410156 6.804688 16.191406 6.804688 16.011719 6.625 16.011719 6.40625 16.011719 6.183594 16.191406 6.003906 16.410156 6.003906 16.632812 6.003906 16.8125 6.183594 16.8125 6.40625zM19.207031 6.40625C19.207031 6.625 19.027344 6.804688 18.808594 6.804688 18.585938 6.804688 18.410156 6.625 18.410156 6.40625 18.410156 6.183594 18.585938 6.003906 18.808594 6.003906 19.027344 6.003906 19.207031 6.183594 19.207031 6.40625zM16.8125 8.800781C16.8125 9.023438 16.632812 9.203125 16.410156 9.203125 16.191406 9.203125 16.011719 9.023438 16.011719 8.800781 16.011719 8.582031 16.191406 8.402344 16.410156 8.402344 16.632812 8.402344 16.8125 8.582031 16.8125 8.800781zM19.207031 8.800781C19.207031 9.023438 19.027344 9.203125 18.808594 9.203125 18.585938 9.203125 18.410156 9.023438 18.410156 8.800781 18.410156 8.582031 18.585938 8.402344 18.808594 8.402344 19.027344 8.402344 19.207031 8.582031 19.207031 8.800781zM22.804688 10C22.804688 10.222656 22.625 10.402344 22.402344 10.402344 22.183594 10.402344 22.003906 10.222656 22.003906 10 22.003906 9.78125 22.183594 9.601562 22.402344 9.601562 22.625 9.601562 22.804688 9.78125 22.804688 10zM20.40625 10C20.40625 10.222656 20.226562 10.402344 20.007812 10.402344 19.785156 10.402344 19.609375 10.222656 19.609375 10 19.609375 9.78125 19.785156 9.601562 20.007812 9.601562 20.226562 9.601562 20.40625 9.78125 20.40625 10zM15.613281 10C15.613281 10.222656 15.433594 10.402344 15.210938 10.402344 14.992188 10.402344 14.8125 10.222656 14.8125 10 14.8125 9.78125 14.992188 9.601562 15.210938 9.601562 15.433594 9.601562 15.613281 9.78125 15.613281 10zM18.007812 10C18.007812 10.222656 17.832031 10.402344 17.609375 10.402344 17.390625 10.402344 17.210938 10.222656 17.210938 10 17.210938 9.78125 17.390625 9.601562 17.609375 9.601562 17.832031 9.601562 18.007812 9.78125 18.007812 10zM11.585938.015625L11.160156.0429688C4.902344.472656 0 5.722656 0 12 0 14.890625 1.046875 17.683594 2.949219 19.867188L3.230469 20.191406 11.585938 11.832031zM10.789062 11.503906L3.277344 19.015625C1.675781 17.03125.800781 14.554688.800781 12 .800781 6.285156 5.152344 1.480469 10.789062.878906zM3.792969 20.753906L4.117188 21.035156C6.300781 22.9375 9.09375 23.984375 11.984375 23.984375 14.753906 23.984375 17.453125 23.015625 19.59375 21.257812L19.933594 20.976562 11.75 12.796875zM11.75 13.929688L12.191406 14.367188 5.476562 21.082031C5.304688 20.960938 5.132812 20.839844 4.96875 20.710938zM8.46875 22.609375C8.191406 22.519531 7.917969 22.414062 7.648438 22.300781L13.886719 16.0625 14.453125 16.628906zM15.015625 17.191406L15.582031 17.757812 10.289062 23.050781C9.972656 23 9.65625 22.9375 9.347656 22.863281zM6.878906 21.941406C6.632812 21.8125 6.394531 21.675781 6.15625 21.53125L12.757812 14.933594 13.320312 15.496094zM11.3125 23.15625L16.148438 18.324219 16.710938 18.886719 12.433594 23.167969C12.285156 23.171875 12.136719 23.1875 11.984375 23.1875 11.761719 23.1875 11.535156 23.171875 11.3125 23.15625zM17.277344 19.453125L17.84375 20.019531 15.140625 22.71875C14.660156 22.863281 14.171875 22.976562 13.679688 23.050781zM17.003906 21.984375L18.40625 20.582031 18.738281 20.914062C18.191406 21.328125 17.609375 21.679688 17.003906 21.984375zM17.003906 21.984375"/>
</svg>

<svg xmlns="http://www.w3.org/2000/svg" width="32" height="32" viewBox="0 0 24 24">
    <path d="M23.941 11.172C23.535 5.234 18.75.449 12.813.043l-.426-.027v11.582h11.582zM13.184 10.8V.879c.988.105 1.941.344 2.836.691 0 .016-.008.028-.008.04 0 .222.18.402.398.402a.408.408 0 0 0 .3-.14 11.271 11.271 0 0 1 4.774 4.25.393.393 0 0 0-.277-.118.401.401 0 1 0 .398.402.432.432 0 0 0-.027-.144c.203.34.387.691.555 1.054a.386.386 0 0 0-.13.29c0 .218.18.398.403.398.008 0 .016-.004.024-.004.34.887.574 1.824.675 2.8zm0 0M12.512 12.398l8.031 8.032.281-.309c1.844-2 2.961-4.59 3.149-7.297l.027-.426zm8 6.872l-6.07-6.07h8.695a11.208 11.208 0 0 1-2.625 6.07zm0 0"/>
    <path d="M14.414 1.61a.401.401 0 1 1-.802.002.401.401 0 0 1 .802-.003zm0 0M14.414 4.008c0 .222-.18.398-.398.398a.398.398 0 1 1 0-.797.4.4 0 0 1 .398.399zm0 0M15.613 2.809a.401.401 0 1 1 0 0zm0 0M18.008 2.809a.398.398 0 1 1-.797 0 .398.398 0 1 1 .797 0zm0 0M16.813 4.008c0 .222-.18.398-.403.398a.398.398 0 1 1 0-.797c.223 0 .402.18.402.399zm0 0M19.207 4.008c0 .222-.18.398-.398.398a.395.395 0 0 1-.399-.398.398.398 0 1 1 .797 0zm0 0M20.406 5.207a.398.398 0 1 1-.797 0c0-.223.176-.398.399-.398.219 0 .398.175.398.398zm0 0M15.613 5.207a.401.401 0 0 1-.8 0c0-.223.18-.398.398-.398.223 0 .402.175.402.398zm0 0M18.008 5.207a.398.398 0 1 1-.797 0c0-.223.18-.398.398-.398.223 0 .399.175.399.398zm0 0M20.406 7.605a.398.398 0 1 1-.797 0 .398.398 0 1 1 .797 0zm0 0M21.605 8.8a.401.401 0 1 1-.801.004.401.401 0 0 1 .801-.003zm0 0M14.414 6.406a.4.4 0 1 1-.8-.003.4.4 0 0 1 .8.003zm0 0M14.414 8.8a.401.401 0 1 1-.802.004.401.401 0 0 1 .802-.003zm0 0M15.613 7.605a.401.401 0 1 1-.802-.005.401.401 0 0 1 .802.005zm0 0M18.008 7.605a.398.398 0 1 1-.797 0 .398.398 0 0 1 .797 0zm0 0M16.813 6.406a.401.401 0 1 1-.802-.005.401.401 0 0 1 .802.005zm0 0M19.207 6.406a.398.398 0 1 1-.797 0 .398.398 0 1 1 .797 0zm0 0M16.813 8.8a.401.401 0 1 1 0 0zm0 0M19.207 8.8a.398.398 0 0 1-.797 0 .398.398 0 1 1 .797 0zm0 0M22.805 10a.401.401 0 1 1 0 0zm0 0M20.406 10a.398.398 0 0 1-.797 0 .398.398 0 1 1 .797 0zm0 0M15.613 10a.401.401 0 1 1 0 0zm0 0M18.008 10a.398.398 0 1 1-.797 0 .398.398 0 1 1 .797 0zm0 0M11.586.016l-.426.027C4.902.473 0 5.723 0 12c0 2.89 1.047 5.684 2.95 7.867l.28.324 8.356-8.359zm-.797 11.488l-7.512 7.512A11.172 11.172 0 0 1 .801 12C.8 6.285 5.152 1.48 10.789.879zm0 0M3.793 20.754l.324.281a11.975 11.975 0 0 0 7.867 2.95c2.77 0 5.47-.97 7.61-2.727l.34-.281-8.184-8.18zm7.957-6.824l.441.437-6.714 6.715c-.172-.121-.344-.242-.508-.371zm-3.281 8.68c-.278-.09-.551-.196-.82-.31l6.238-6.238.566.567zm6.547-5.419l.566.567-5.293 5.293c-.316-.051-.633-.113-.941-.188zm-8.137 4.75a13.196 13.196 0 0 1-.723-.41l6.602-6.597.562.562zm4.434 1.215l4.835-4.832.563.563-4.277 4.281c-.149.004-.297.02-.45.02-.222 0-.449-.016-.671-.032zm5.964-3.703l.567.567-2.703 2.699c-.48.144-.97.258-1.461.332zm-.273 2.531l1.402-1.402.332.332c-.547.414-1.129.766-1.734 1.07zm0 0"/>
</svg>
